src/actions/24/format-join-node.svg

<svg xmlns="http://www.w3.org/2000/svg" viewBox="0 0 24 24">
    <path d="M4 4v3h3V6h10v1h3V4h-3v1H7V4H4zm1 1h1v1H5V5zm13 0h1v1h-1V5zm-8 11v2H4v1h6v1h4v-1h6v-1h-6v-2h-4zm1 1h2v2h-2v-2z" style="fill:currentColor;fill-opacity:1;stroke:none;color:#050505;opacity:.7"/>
    <path d="m10 10.5 2 3 2-3h-4z" style="fill:currentColor;fill-opacity:1;stroke:none;color:#a0b6cb"/>
</svg>

<svg xmlns="http://www.w3.org/2000/svg" viewBox="0 0 24 24">
  <defs id="defs3051">
    <style type="text/css" id="current-color-scheme">
      .ColorScheme-Text {
        color:#363636;
      }
      .ColorScheme-Highlight {
        color:#3daee9;
      }
      </style>
  </defs>
 <path 
     style="fill:currentColor;fill-opacity:1;stroke:none" 
     d="M 4 4 L 4 7 L 7 7 L 7 6 L 10 6 L 14 6 L 17 6 L 17 7 L 20 7 L 20 4 L 17 4 L 17 5 L 14 5 L 10 5 L 7 5 L 7 4 L 4 4 z M 5 5 L 6 5 L 6 6 L 5 6 L 5 5 z M 18 5 L 19 5 L 19 6 L 18 6 L 18 5 z M 10 16 L 10 18 L 4 18 L 4 19 L 10 19 L 10 20 L 14 20 L 14 19 L 20 19 L 20 18 L 14 18 L 14 16 L 10 16 z M 11 17 L 13 17 L 13 18 L 13 19 L 11 19 L 11 17 z "
     class="ColorScheme-Text"
     />
 <path 
     style="fill:currentColor;fill-opacity:1;stroke:none" 
     d="M 10 10.5 L 12 13.5 L 14 10.5 L 10 10.5 z "
     class="ColorScheme-Highlight"
     />
</svg>
